src/assets/icon/error.svg

<svg width="20" height="20" viewBox="0 0 20 20" fill="none" xmlns="http://www.w3.org/2000/svg">
<path d="M10 14.7308C10.2288 14.7308 10.4207 14.6533 10.5755 14.4985C10.7303 14.3437 10.8077 14.1518 10.8077 13.923C10.8077 13.6942 10.7303 13.5023 10.5755 13.3475C10.4207 13.1928 10.2288 13.1155 10 13.1155C9.77117 13.1155 9.57933 13.1928 9.4245 13.3475C9.26967 13.5023 9.19225 13.6942 9.19225 13.923C9.19225 14.1518 9.26967 14.3437 9.4245 14.4985C9.57933 14.6533 9.77117 14.7308 10 14.7308ZM10.0003 11.077C10.2129 11.077 10.391 11.0051 10.5345 10.8613C10.6782 10.7176 10.75 10.5395 10.75 10.327V5.827C10.75 5.6145 10.6781 5.43633 10.5343 5.2925C10.3904 5.14883 10.2122 5.077 9.99975 5.077C9.78708 5.077 9.609 5.14883 9.4655 5.2925C9.32183 5.43633 9.25 5.6145 9.25 5.827V10.327C9.25 10.5395 9.32192 10.7176 9.46575 10.8613C9.60958 11.0051 9.78775 11.077 10.0003 11.077ZM10.0017 19.5C8.68775 19.5 7.45267 19.2507 6.2965 18.752C5.14033 18.2533 4.13467 17.5766 3.2795 16.7218C2.42433 15.8669 1.74725 14.8617 1.24825 13.706C0.749417 12.5503 0.5 11.3156 0.5 10.0017C0.5 8.68775 0.749333 7.45267 1.248 6.2965C1.74667 5.14033 2.42342 4.13467 3.27825 3.2795C4.13308 2.42433 5.13833 1.74725 6.294 1.24825C7.44967 0.749417 8.68442 0.5 9.99825 0.5C11.3123 0.5 12.5473 0.749333 13.7035 1.248C14.8597 1.74667 15.8653 2.42342 16.7205 3.27825C17.5757 4.13308 18.2528 5.13833 18.7518 6.294C19.2506 7.44967 19.5 8.68442 19.5 9.99825C19.5 11.3123 19.2507 12.5473 18.752 13.7035C18.2533 14.8597 17.5766 15.8653 16.7218 16.7205C15.8669 17.5757 14.8617 18.2528 13.706 18.7518C12.5503 19.2506 11.3156 19.5 10.0017 19.5ZM10 18C12.2333 18 14.125 17.225 15.675 15.675C17.225 14.125 18 12.2333 18 10C18 7.76667 17.225 5.875 15.675 4.325C14.125 2.775 12.2333 2 10 2C7.76667 2 5.875 2.775 4.325 4.325C2.775 5.875 2 7.76667 2 10C2 12.2333 2.775 14.125 4.325 15.675C5.875 17.225 7.76667 18 10 18Z" fill="#E30606"/>
</svg>

<svg xmlns="http://www.w3.org/2000/svg" width="20" height="20" fill="none" xmlns:v="https://vecta.io/nano"><path d="M10 14.731a.78.78 0 0 0 .808-.808.78.78 0 0 0-.808-.807.78.78 0 0 0-.808.807.78.78 0 0 0 .808.808zm0-3.654c.213 0 .391-.072.534-.216s.216-.322.216-.534v-4.5c0-.213-.072-.391-.216-.534s-.322-.216-.535-.216-.391.072-.534.216-.216.322-.216.534v4.5c0 .213.072.391.216.534s.322.216.535.216zm.001 8.423c-1.314 0-2.549-.249-3.705-.748s-2.162-1.175-3.017-2.03-1.532-1.86-2.031-3.016S.5 11.316.5 10.002s.249-2.549.748-3.705 1.175-2.162 2.03-3.017 1.86-1.532 3.016-2.031S8.684.5 9.998.5s2.549.249 3.705.748 2.162 1.175 3.017 2.03 1.532 1.86 2.031 3.016.748 2.39.748 3.704-.249 2.549-.748 3.705-1.175 2.162-2.03 3.017-1.86 1.532-3.016 2.031-2.39.748-3.704.748zM10 18c2.233 0 4.125-.775 5.675-2.325S18 12.233 18 10s-.775-4.125-2.325-5.675S12.233 2 10 2s-4.125.775-5.675 2.325S2 7.767 2 10s.775 4.125 2.325 5.675S7.767 18 10 18z" fill="#e30606"/></svg>
